X:1
T:Title
%%score ( 1 2 ) { 3 | 4 }
L:1/8
Q:1/4=93
M:3/4
K:Ab
V:1 treble nm="Grand Piano, Soprano"
V:2 treble 
V:3 bass nm="Choir Pad, I Tell Him All"
V:4 bass 
V:1
 [CE]2 [Ec][CA] [CE]2- | [CE][CE] [DF][DF] [FB]2- | [FB][FA] [DG][DG] [DG]2- | %3
w: By~Andrew~Carswell~Fergus~Ferguson * * *|||
 [DG][DF] [DF][CE] [Ec]2- | [Ec][_Ge] [Fd]3 [FB] | [EA][DG] [CA]4 | z [CE] [DG][CA] [DB]2- | %7
w: ||||
 [DB][DE] [Ec][DB] [CA]2- | [CA]E [EB][Ec] [Ed]2- | [Ed][EB] [Ee][Ed] [Ec]2- | %10
w: |||
 [Ec][_Ge] [Fd]3 [FB] | [EA][DG] [CA]4 | [CE]2 [DF][Fd] [Fd]2- | [Fd][DF] [CE][Ec] [Ec]2- | %14
w: ||||
 [Ec][Ec] [EB]3 [EB] | [EA][EB] c2 e2 | E2 [DF][Fd] [Fd]2- | [Fd][DF] [CE][Ec] [Ec]2- | %18
w: ||||
 [Ec][_Ge] [Fd]3 [FB] | [EA]>[DG] [CA]4- | [CA]4 z2 |] %21
w: |||
V:2
 x6 | x6 | x6 | x6 | x6 | x6 | x6 | x6 | x6 | x6 | x6 | x6 | x6 | x6 | x6 | z2 E4 | x6 | x6 | x6 | %19
 x6 | x6 |] %21
V:3
 A,2 A,E, A,2- | A,A, A,A, D2- | DB, B,B, B,2- | B,G, A,A, A,2- | A,A, A,3 D | CB, A,4 | %6
 z A, B,A, G,2- | G,G, A,A, E,2- | E,A, G,A, B,2- | B,G, A,G, A,2- | A,A, A,3 D | CB, A,4 | %12
 A,2 A,A, A,2- | A,A, A,A, A,2- | A,A, G,3 G, | A,G, A,2 C2 | A,2 A,A, A,2- | A,A, A,A, A,2- | %18
 A,A, A,3 D | C>B, A,4- | A,4 z2 |] %21
V:4
 A,,2 A,,A,, A,,2- | A,,A,, D,D, B,,2- | B,,B,, E,E, E,2- | E,E, A,,A,, A,,2- | A,,C, D,3 D, | %5
 E,E, A,,4 | z A,, E,E, E,2- | E,E, A,,A,, A,,2- | A,,C, E,E, E,2- | E,D, C,B,, A,,2- | %10
 A,,C, D,3 D, | E,E, A,,4 | A,,2 D,D, D,2- | D,D, A,,A,, A,,2- | A,,A,, E,3 D, | C,E, z2 z2 | %16
 C,2 D,D, D,2- | D,D, A,,A,, A,,2- | A,,C, D,3 D, | E,>E, A,,4- | A,,4 z2 |] %21

